!!!!SEGMENT: pl-stab--14a--005_rodowski-aleksander--missa-in-c-agnus-dei.krn
!!!cenid: 18xx:3397
!!!COM: Rodowski, Aleksander
!!!COM-rismID: pe30009627
!!!CDT: <1790->1810
!!!CNT: Polish
!!!OPR: Missa in C
!!!OTL: Agnus Dei
!!!OMV: 005
!!!PDT:
!!!AGN:
!!!SMS-siglum: PL-STAb
!!!SMS-shelfmark: 14a
!!!SMS-shelfwork: M
!!!SMS-variant:
!!!SMS-altvar:
!!!NIFC-rismSourceID: 301050680
!!!NIFC-islandoraID: pl-stab:2671
!!!URL-pdf-islandora: https://repozytorium.nifc.pl/islandora/object/pl-stab%3A2671/datastream/PDF/view
!!!URL-scan: https://polish.musicsources.pl/pl/lokalizacje/galeria/rekopisy/4417 @EN{Scan on Polish Music Sources Website} @PL{Skany w portalu Dziedzictwo Muzyki Polskiej w otwartym dostępie}
!!!ONB-nifc: UWAGA: części Mszy: 1. Kyrie, 2. Gloria, 3. Patrem, 4. Sanctus, 5. Agnus Dei
!!!AIN: 1 alto 1 bass 2 clars 2 cor 1 organ 1 soprn 1 tenor 2 violn
!!!key: C
**kern	**fba	**dynam	**kern	**dynam	**kern	**kern	**text	**kern	**text	**kern	**text	**kern	**text	**text	**kern	**kern	**kern	**kern
*part11	*part11	*part11	*part10	*part10	*part9	*part8	*part8	*part7	*part7	*part6	*part6	*part5	*part5	*part5	*part4	*part3	*part2	*part1
*staff11	*staff11	*	*staff10	*	*staff9	*staff8	*staff8	*staff7	*staff7	*staff6	*staff6	*staff5	*staff5	*staff5	*staff4	*staff3	*staff2	*staff1
*	*	*	*group4	*	*group4	*group3	*	*group3	*	*group3	*	*group3	*	*	*group2	*group2	*group1	*group1
*I"Organo	*	*	*I"Violino Secundo	*	*I"Violino Primo	*I"Baſso	*	*I"Tenore	*	*I"Alto	*	*I"Canto	*	*	*I"Cornu Secundo in C.	*I"Cornu Primo in C.	*I"Clarinetto Secundo	*I"Clarinetto Primo
*I'org	*	*	*I'vl 2	*	*I'vl 1	*I'B	*	*I'T	*	*I'A	*	*I'S	*	*	*I'cor 2 in C	*I'cor 1 in C	*I'cl 2	*I'cl 1
*Iorgan	*	*	*Ivioln	*	*Ivioln	*Ibass	*	*Itenor	*	*Ialto	*	*Isoprn	*	*	*Icor	*Icor	*Iclars	*Iclars
*ICklav	*	*	*ICstr	*	*ICstr	*ICvox	*	*ICvox	*	*ICvox	*	*ICvox	*	*	*ICbras	*ICbras	*ICww	*ICww
*IGcont	*	*	*IGacmp	*	*IGacmp	*IGcoro	*	*IGcoro	*	*IGcoro	*	*IGcoro	*	*	*IGacmp	*IGacmp	*IGacmp	*IGacmp
*clefF4	*	*	*clefG2	*	*clefG2	*clefF4	*	*clefC4	*	*clefC3	*	*clefC1	*	*	*clefG2	*clefG2	*clefG2	*clefG2
*	*	*	*	*	*	*	*	*	*	*	*	*	*	*	*Trd0c0	*Trd0c0	*	*
*k[]	*	*	*k[]	*	*k[]	*k[]	*	*k[]	*	*k[]	*	*k[]	*	*	*k[]	*k[]	*k[]	*k[]
*C:	*	*	*C:	*	*C:	*C:	*	*C:	*	*C:	*	*C:	*	*	*C:	*C:	*C:	*C:
*M2/4	*	*	*M2/4	*	*M2/4	*M2/4	*	*M2/4	*	*M2/4	*	*M2/4	*	*	*M2/4	*M2/4	*M2/4	*M2/4
=1	=1	=1	=1	=1	=1	=1	=1	=1	=1	=1	=1	=1	=1	=1	=1	=1	=1	=1
*2\right	*	*	*	*	*	*	*	*	*	*	*	*	*	*	*	*	*	*
*tremolo	*	*	*	*	*	*	*	*	*	*	*	*	*	*	*	*	*	*
!	!	!	!	!	!	!	!	!	!	!	!	!	!	!	!	!	!LO:TX:a:i:t=Solo	!LO:TX:a:i:t=Solo
!LO:TX:a:Bi:t=Adagio	!	!	!LO:TX:a:Bi:t=Adagio	!	!LO:TX:a:Bi:t=Adagio	!	!	!LO:TX:a:Bi:t=Adagio	!	!LO:TX:a:Bi:t=Adagio	!	!LO:TX:a:Bi:t=Adagio	!	!	!LO:TX:a:Bi:t=Adagio	!LO:TX:a:Bi:t=Adagio	!LO:TX:a:Bi:t=Adagio	!LO:TX:a:Bi:t=Adagio
8c\L	5 3	p	4e 4G/	.	4cc 4e 4G/	0r	.	0r	.	0r	.	0r	.	.	0r	0r	16cc\LL	16ee\LL
.	.	.	.	.	.	.	.	.	.	.	.	.	.	.	.	.	16b\	16dd\
8c\	.	.	.	.	.	.	.	.	.	.	.	.	.	.	.	.	16cc\	16ee\
.	.	.	.	.	.	.	.	.	.	.	.	.	.	.	.	.	16dd\JJ	16ff\JJ
8c\	.	.	4r	.	4r	.	.	.	.	.	.	.	.	.	.	.	8ee\L	8gg\L
8c\J	.	.	.	.	.	.	.	.	.	.	.	.	.	.	.	.	8ee\J	8gg\J
=2	=2	=2	=2	=2	=2	=2	=2	=2	=2	=2	=2	=2	=2	=2	=2	=2	=2	=2
!	!	!	!	!	!LO:TX:t=P:problem=mixed beam	!	!	!	!	!	!	!	!	!	!	!	!	!
8c\L	.	.	16eLL 16G/	.	16c/LL	.	.	.	.	.	.	.	.	.	.	.	4ee\	4gg\
.	.	.	16e/	.	16cc\	.	.	.	.	.	.	.	.	.	.	.	.	.
8c\	.	.	16d/	.	16b\	.	.	.	.	.	.	.	.	.	.	.	.	.
.	.	.	16e/JJ	.	16cc\JJ	.	.	.	.	.	.	.	.	.	.	.	.	.
8c\	.	.	16f/LL	.	16dd\LL	.	.	.	.	.	.	.	.	.	.	.	4r	4r
.	.	.	16e/	.	16cc\	.	.	.	.	.	.	.	.	.	.	.	.	.
8c\J	.	.	16d/	.	16b\	.	.	.	.	.	.	.	.	.	.	.	.	.
.	.	.	16e/JJ	.	16cc\JJ	.	.	.	.	.	.	.	.	.	.	.	.	.
=3	=3	=3	=3	=3	=3	=3	=3	=3	=3	=3	=3	=3	=3	=3	=3	=3	=3	=3
8c\L	4 6	.	4f 4c/	.	4a/	.	.	.	.	.	.	.	.	.	.	.	16dd\LL	16ff\LL
.	.	.	.	.	.	.	.	.	.	.	.	.	.	.	.	.	16cc\	16ee\
8c\	.	.	.	.	.	.	.	.	.	.	.	.	.	.	.	.	16dd\	16ff\
.	.	.	.	.	.	.	.	.	.	.	.	.	.	.	.	.	16ee\JJ	16gg\JJ
8c\	.	.	4r	.	4r	.	.	.	.	.	.	.	.	.	.	.	8ff\L	8aa\L
8c\J	.	.	.	.	.	.	.	.	.	.	.	.	.	.	.	.	8ff\J	8aa\J
=4	=4	=4	=4	=4	=4	=4	=4	=4	=4	=4	=4	=4	=4	=4	=4	=4	=4	=4
!	!	!	!	!	!LO:TX:t=P:problem=mixed beam	!	!	!	!	!	!	!	!	!	!	!	!	!
8c\L	.	.	16c/LL	.	16c/LL	.	.	.	.	.	.	.	.	.	.	.	4ff\	4aa\
.	.	.	16f/	.	16cc\	.	.	.	.	.	.	.	.	.	.	.	.	.
8c\	.	.	16a/	.	16b\	.	.	.	.	.	.	.	.	.	.	.	.	.
.	.	.	16f/JJ	.	16cc\JJ	.	.	.	.	.	.	.	.	.	.	.	.	.
*	*	*	*rep	*	*	*	*	*	*	*	*	*	*	*	*	*	*	*
8c\	.	.	16c/LL	.	16dd\LL	.	.	.	.	.	.	.	.	.	.	.	4r	4r
.	.	.	16f/	.	16cc\	.	.	.	.	.	.	.	.	.	.	.	.	.
8c\J	.	.	16a/	.	16b\	.	.	.	.	.	.	.	.	.	.	.	.	.
.	.	.	16f/JJ	.	16cc\JJ	.	.	.	.	.	.	.	.	.	.	.	.	.
*	*	*	*Xrep	*	*	*	*	*	*	*	*	*	*	*	*	*	*	*
=5	=5	=5	=5	=5	=5	=5	=5	=5	=5	=5	=5	=5	=5	=5	=5	=5	=5	=5
8G\L	.	.	4f 4G/	.	4b\	1r	.	1r	.	1r	.	1r	.	.	1r	1r	16b\LL	16dd\LL
.	.	.	.	.	.	.	.	.	.	.	.	.	.	.	.	.	16a\	16cc\
8G\	.	.	.	.	.	.	.	.	.	.	.	.	.	.	.	.	16b\	16dd\
.	.	.	.	.	.	.	.	.	.	.	.	.	.	.	.	.	16cc\JJ	16ee\JJ
8G\	.	.	4r	.	4r	.	.	.	.	.	.	.	.	.	.	.	8dd\L	8ff\L
8G\J	.	.	.	.	.	.	.	.	.	.	.	.	.	.	.	.	8dd\J	8ff\J
*Xtremolo	*	*	*	*	*	*	*	*	*	*	*	*	*	*	*	*	*	*
=6	=6	=6	=6	=6	=6	=6	=6	=6	=6	=6	=6	=6	=6	=6	=6	=6	=6	=6
4G\	.	.	8fL 8G/	.	16gg\LL	.	.	.	.	.	.	.	.	.	.	.	4dd\	4ff\
.	.	.	.	.	16bb\	.	.	.	.	.	.	.	.	.	.	.	.	.
.	.	.	16b/L	.	16ddd\	.	.	.	.	.	.	.	.	.	.	.	.	.
.	.	.	16a/JJ	.	16ccc\JJ	.	.	.	.	.	.	.	.	.	.	.	.	.
4r	.	.	16g/LL	.	16bb\LL	.	.	.	.	.	.	.	.	.	.	.	4r	4r
.	.	.	16f/	.	16aa\	.	.	.	.	.	.	.	.	.	.	.	.	.
.	.	.	16e/	.	16gg\	.	.	.	.	.	.	.	.	.	.	.	.	.
.	.	.	16d/JJ	.	16ff\JJ	.	.	.	.	.	.	.	.	.	.	.	.	.
!	!	!	!	!	!LO:LB:g=original	!	!	!	!	!	!	!	!	!	!	!	!	!LO:LB:g=original
=7	=7	=7	=7	=7	=7	=7	=7	=7	=7	=7	=7	=7	=7	=7	=7	=7	=7	=7
*tremolo	*	*	*	*	*	*2\right	*	*2\right	*	*2\right	*	*2\right	*	*	*	*	*	*
!	!	!	!	!LO:DY:rj	!	!	!	!	!	!	!	!	!	!	!	!	!	!
8c\L	5_ 3_	f	4cc 4e 4G/	f	4ee\	2c\	A-	2e\	A-	2ee\	A-	2gg\	A-	.	4e/	4cc\	16cc\LL	16ee\LL
.	.	.	.	.	.	.	.	.	.	.	.	.	.	.	.	.	16b\	16dd\
8c\	.	.	.	.	.	.	.	.	.	.	.	.	.	.	.	.	16cc\	16ee\
.	.	.	.	.	.	.	.	.	.	.	.	.	.	.	.	.	16dd\JJ	16ff\JJ
8c\	.	.	4r	.	4r	.	.	.	.	.	.	.	.	.	8e/L	8cc\L	8ee\L	8gg\L
8c\J	.	.	.	.	.	.	.	.	.	.	.	.	.	.	8e/J	8cc\J	8ee\J	8gg\J
!	!	!	!LO:LB:g=original	!	!	!	!	!	!	!	!	!	!	!	!	!	!LO:LB:g=original	!
=8	=8	=8	=8	=8	=8	=8	=8	=8	=8	=8	=8	=8	=8	=8	=8	=8	=8	=8
8c\L	.	.	16e/LL	.	16cc\LL	4c\	-gnus	4e\	-gnus	4ee\	-gnus	4gg\	-gnus	.	4e/	4cc\	4ee\	4gg\
.	.	.	16c/	.	16ee\	.	.	.	.	.	.	.	.	.	.	.	.	.
8c\	.	.	16g/	.	16gg\	.	.	.	.	.	.	.	.	.	.	.	.	.
.	.	.	16e/JJ	.	16ccc\JJ	.	.	.	.	.	.	.	.	.	.	.	.	.
8c\	.	.	16c/LL	.	16bb\LL	4r	.	4r	.	4r	.	4r	.	.	4r	4r	4r	4r
.	.	.	16e/	.	16ccc\	.	.	.	.	.	.	.	.	.	.	.	.	.
8c\J	.	.	16g/	.	16bb\	.	.	.	.	.	.	.	.	.	.	.	.	.
.	.	.	16e/JJ	.	16ccc\JJ	.	.	.	.	.	.	.	.	.	.	.	.	.
=9	=9	=9	=9	=9	=9	=9	=9	=9	=9	=9	=9	=9	=9	=9	=9	=9	=9	=9
*	*	*	*	*	*	*	*ij	*	*ij	*	*ij	*	*ij	*	*	*	*	*
8c\L	6_ 4_	.	4f 4c/	.	4aa\	2c\	A-	2f\	A-	2ff\	A-	2aa\	A-	.	4c/	4cc\	16dd\LL	16ff\LL
.	.	.	.	.	.	.	.	.	.	.	.	.	.	.	.	.	16cc\	16ee\
8c\	.	.	.	.	.	.	.	.	.	.	.	.	.	.	.	.	16dd\	16ff\
.	.	.	.	.	.	.	.	.	.	.	.	.	.	.	.	.	16ee\JJ	16gg\JJ
8c\	.	.	4r	.	4r	.	.	.	.	.	.	.	.	.	8c/L	8cc\L	8ff\L	8aa\L
8c\J	.	.	.	.	.	.	.	.	.	.	.	.	.	.	8c/J	8cc\J	8ff\J	8aa\J
=10	=10	=10	=10	=10	=10	=10	=10	=10	=10	=10	=10	=10	=10	=10	=10	=10	=10	=10
8c\L	.	.	16f/LL	.	16cc\LL	4c\	-gnus	4f\	-gnus	4ff\	-gnus	4aa\	-gnus	.	4c/	4cc\	4ff\	4aa\
*	*	*	*	*	*	*	*Xij	*	*Xij	*	*	*	*Xij	*	*	*	*	*
.	.	.	16c/	.	16ff\	.	.	.	.	.	.	.	.	.	.	.	.	.
8c\	.	.	16a/	.	16aa\	.	.	.	.	.	.	.	.	.	.	.	.	.
.	.	.	16f/JJ	.	16ccc\JJ	.	.	.	.	.	.	.	.	.	.	.	.	.
8c\	.	.	16c/LL	.	16bb\LL	4r	.	4r	.	4r	.	4r	.	.	4r	4r	4r	4r
.	.	.	16f/	.	16ccc\	.	.	.	.	.	.	.	.	.	.	.	.	.
8c\J	.	.	16a/	.	16bb\	.	.	.	.	.	.	.	.	.	.	.	.	.
.	.	.	16f/JJ	.	16ccc\JJ	.	.	.	.	.	.	.	.	.	.	.	.	.
=11	=11	=11	=11	=11	=11	=11	=11	=11	=11	=11	=11	=11	=11	=11	=11	=11	=11	=11
8G\L	7 5	.	4g 4G/	.	4bb\	8B\	A-	8d\	a-	8dd\	A-	8ff\	A-	.	4g/	4dd\	16b\LL	16dd\LL
.	.	.	.	.	.	.	.	.	.	.	.	.	.	.	.	.	16a\	16cc\
8G\	.	.	.	.	.	16B\	-gnus	16d\	-gnus	16dd\	-gnus	16ff\	-gnus	.	.	.	16b\	16dd\
*	*	*	*	*	*	*	*	*	*	*	*Xij	*	*	*	*	*	*	*
.	.	.	.	.	.	16B\	De-	16d\	De-	16dd\	De-	16ff\	De-	.	.	.	16cc\JJ	16ee\JJ
8G\	.	.	4r	.	4r	8B\	-i	8d\	-i	8dd\	-i	8ff\	-i	.	8g/L	8dd\L	8dd\L	8ff\L
8G\J	.	.	.	.	.	8B\	qui	8d\	qui	8dd\	qui	8ff\	qui	.	8g/J	8dd\J	8dd\J	8ff\J
*Xtremolo	*	*	*	*	*	*	*	*	*	*	*	*	*	*	*	*	*	*
=12	=12	=12	=12	=12	=12	=12	=12	=12	=12	=12	=12	=12	=12	=12	=12	=12	=12	=12
4G\	.	.	16d/LL	.	16gg\LL	8B\	tol-	8d\	tol-	8dd\	tol-	8ff\	tol-	.	4g/	4dd\	4dd\	4ff\
.	.	.	16g/	.	16bb\	.	.	.	.	.	.	.	.	.	.	.	.	.
.	.	.	16b/	.	16ddd\	16B\	-lis	16d\	-lis	16dd\	-lis	16ff\	-lis	.	.	.	.	.
.	.	.	16a/JJ	.	16ccc\JJ	16B\	pec-	16d\	pec-	16dd\	pec-	16ff\	pec-	.	.	.	.	.
!	!	!	!	!	!	!LO:LB:g=original	!	!	!	!	!	!LO:LB:g=original	!	!	!	!	!	!
4r	.	.	16g/LL	.	16bb\LL	16B\LL	-ca-	8e\	-ca-	8ee\	-ca-	8gg\	-ca-	.	4r	4r	4r	4r
.	.	.	16f/	.	16aa\	16G\JJ	.	.	.	.	.	.	.	.	.	.	.	.
.	.	.	16e/	.	16gg\	16A\LL	-ta	8d\	-ta	8dd\	-ta	8ff\	-ta	.	.	.	.	.
.	.	.	16d/JJ	.	16ff\JJ	16B\JJ	.	.	.	.	.	.	.	.	.	.	.	.
!LO:LB:g=original	!	!	!	!	!	!	!	!LO:LB:g=original	!	!LO:LB:g=original	!	!	!	!	!	!	!	!
=13	=13	=13	=13	=13	=13	=13	=13	=13	=13	=13	=13	=13	=13	=13	=13	=13	=13	=13
4C/	.	.	16c/LL	.	16ee\LL	8c\	mun-	8c\	mun-	8cc\	mun-	8ee\	mun-	.	4e/	4cc\	4cc\	4ee\
.	.	.	16c/	.	16cc\	.	.	.	.	.	.	.	.	.	.	.	.	.
.	.	.	16B/	.	16dd\	8C/	-di	8c\	-di	8cc\	-di	8b\	-di	.	.	.	.	.
.	.	.	16c/JJ	.	16ee\JJ	.	.	.	.	.	.	.	.	.	.	.	.	.
4r	.	.	16d/LL	.	16ff\LL	4r	.	4r	.	4r	.	4r	.	.	4r	4r	4r	4r
.	.	.	16e/	.	16gg\	.	.	.	.	.	.	.	.	.	.	.	.	.
.	.	.	16f/	.	16aa\	.	.	.	.	.	.	.	.	.	.	.	.	.
.	.	.	16d/JJ	.	16bb\JJ	.	.	.	.	.	.	.	.	.	.	.	.	.
!	!	!	!	!	!LO:LB:g=original	!	!	!	!	!	!	!	!	!	!	!	!	!
=14	=14	=14	=14	=14	=14	=14	=14	=14	=14	=14	=14	=14	=14	=14	=14	=14	=14	=14
4C/	.	.	4e 4G/	.	4ccc\	2r	.	2r	.	2r	.	2r	.	.	8r	8r	8cc\L	8r
.	.	.	.	.	.	.	.	.	.	.	.	.	.	.	8cc\L	8cc\L	8cc\	8ee\L
4r	.	.	4r	.	4r	.	.	.	.	.	.	.	.	.	8g\	8g\	8cc\J	8ee\
.	.	.	.	.	.	.	.	.	.	.	.	.	.	.	8e\J	8e\J	8r	8ee\J
=15	=15	=15	=15	=15	=15	=15	=15	=15	=15	=15	=15	=15	=15	=15	=15	=15	=15	=15
*tremolo	*	*	*	*	*	*	*	*	*	*	*	*	*	*	*	*	*	*
!	!	!	!	!LO:DY:t=for:rj	!	!	!	!	!	!	!	!	!	!	!	!	!	!
8c\L	6 3	.	16c/LL	f	16a\LL	4c\	Mi-	4c\	mi-	4a\	par-	4ee\	par-	Mi-	4c/	4c/	4cc\	4ee\
.	.	.	16e/	.	16cc\	.	.	.	.	.	.	.	.	.	.	.	.	.
8c\	.	.	16g/	.	16ee\	.	.	.	.	.	.	.	.	.	.	.	.	.
.	.	.	16e/JJ	.	16aa\JJ	.	.	.	.	.	.	.	.	.	.	.	.	.
*	*	*	*rep	*	*	*	*	*	*	*	*	*	*	*	*	*	*	*
8c\	.	.	16c/LL	.	16gg#X\LL	4c\	-se-	4c\	-se-	4a\	-ce	4ee\	-ce	-se-	4r	4r	4r	4r
.	.	.	16e/	.	16aa\	.	.	.	.	.	.	.	.	.	.	.	.	.
8c\J	.	.	16g/	.	16gg#\	.	.	.	.	.	.	.	.	.	.	.	.	.
.	.	.	16e/JJ	.	16aa\JJ	.	.	.	.	.	.	.	.	.	.	.	.	.
*	*	*	*Xrep	*	*	*	*	*	*	*	*	*	*	*	*	*	*	*
!	!	!	!LO:LB:g=original	!	!	!	!	!	!	!	!	!	!	!	!LO:LB:g=original	!	!	!
=16	=16	=16	=16	=16	=16	=16	=16	=16	=16	=16	=16	=16	=16	=16	=16	=16	=16	=16
8B\L	6 3	.	16B/LL	.	16g\LL	4B\	-re-	4B\	-re-	4g\	no-	4dd\	no-	-re-	4G/	4g/	4b\	4dd\
.	.	.	16d/	.	16b\	.	.	.	.	.	.	.	.	.	.	.	.	.
8B\	.	.	16g/	.	16dd\	.	.	.	.	.	.	.	.	.	.	.	.	.
.	.	.	16d/JJ	.	16gg\JJ	.	.	.	.	.	.	.	.	.	.	.	.	.
*	*	*	*rep	*	*	*	*	*	*	*	*	*	*	*	*	*	*	*
8B\	.	.	16B/LL	.	16ff#X\LL	4B\	-re	4B\	-re	4g\	-bis	4dd\	-bis	-re	4r	4r	4r	4r
.	.	.	16d/	.	16gg\	.	.	.	.	.	.	.	.	.	.	.	.	.
8B\J	.	.	16g/	.	16ff#\	.	.	.	.	.	.	.	.	.	.	.	.	.
.	.	.	16d/JJ	.	16gg\JJ	.	.	.	.	.	.	.	.	.	.	.	.	.
*Xtremolo	*	*	*Xrep	*	*	*	*	*	*	*	*	*	*	*	*	*	*	*
!	!	!	!	!	!	!	!	!	!	!	!	!	!	!	!	!LO:LB:g=original	!	!LO:LB:g=original
=17	=17	=17	=17	=17	=17	=17	=17	=17	=17	=17	=17	=17	=17	=17	=17	=17	=17	=17
*	*	*	*	*	*	*	*	*	*	*	*ij	*	*ij	*ij	*	*	*	*
!LO:TX:t=P:problem=mixed beam	!	!	!	!	!	!	!	!	!	!	!	!	!	!	!	!	!	!
8c\L	6 3	.	16c/LL	.	16ee\LL	8c\	mi-	8A\	mi-	8b\	no-	8ee\	no-	Mi-	0r	0r	8cc\L	4ee\
.	.	.	16e/	.	16gg#X\	.	.	.	.	.	.	.	.	.	.	.	.	.
8c\	.	.	16a/	.	16aa\	8c\	-se-	8A\	-se-	8b\	-bis	8ee\	-bis	-se-	.	.	8b\J	.
*	*	*	*	*	*	*	*	*	*	*	*Xij	*	*Xij	*	*	*	*	*
.	.	.	16e/JJ	.	16bb\JJ	.	.	.	.	.	.	.	.	.	.	.	.	.
8d\	6 4	.	16d/LL	.	16ccc\LL	8d\	-re-	8A\	-re-	8cc\	Do-	8dd\	Do-	-re-	.	.	4a\	8dd\L
.	.	.	16f#X/	.	16aa\	.	.	.	.	.	.	.	.	.	.	.	.	.
8D/J	# 7	.	16cc/	.	16ee\	8D/	-re_no-	8A\	-re	8cc\	-mi-	8ff#X\	-mi-	.	.	.	.	8ff#X\J
.	.	.	16a/JJ	.	16ff#X\JJ	.	.	.	.	.	.	.	.	.	.	.	.	.
=18	=18	=18	=18	=18	=18	=18	=18	=18	=18	=18	=18	=18	=18	=18	=18	=18	=18	=18
!LO:TX:t=P:problem=mixed beam	!	!	!	!	!	!	!	!	!	!	!	!	!	!	!	!	!	!
8G\L	.	.	8b/L	.	8ggL 8b 8d/	8G\	-bis	8G/	no-	8b\	-ne	8gg\	-ne	-re	.	.	8b\L	8gg\L
*	*	*	*	*	*	*	*	*	*	*	*	*	*	*Xij	*	*	*	*
8GG/	.	.	8b/	.	8gg 8b 8d/	8r	.	8G/	-bis	8r	.	8r	.	.	.	.	8b\	8gg\J
8G\J	.	.	8b/J	.	8ggJ 8b 8d/	4r	.	4r	.	4r	.	4r	.	.	.	.	8b\J	8gg\
8r	.	.	8r	.	8r	.	.	.	.	.	.	.	.	.	.	.	8r	8r
!	!	!	!	!	!	!LO:LB:g=original	!	!	!	!	!	!	!	!	!	!	!LO:LB:g=original	!
=19	=19	=19	=19	=19	=19	=19	=19	=19	=19	=19	=19	=19	=19	=19	=19	=19	=19	=19
*tremolo	*	*	*tremolo	*	*tremolo	*	*	*	*	*	*	*	*	*	*	*	*	*
!	!	!	!	!	!	!LO:TX:a:i:t=Solo	!	!	!	!	!	!	!	!	!	!	!	!
8G\L	5 3	.	16B/LL	.	16d/LL	32G\LLL	A-	0r	.	0r	.	0r	.	.	.	.	0r	0r
.	.	.	.	.	.	32F#X\	.	.	.	.	.	.	.	.	.	.	.	.
.	.	.	16B/	.	16d/	32G\	.	.	.	.	.	.	.	.	.	.	.	.
.	.	.	.	.	.	32A\JJJ	.	.	.	.	.	.	.	.	.	.	.	.
8G\	.	.	16B/	.	16d/	32B\LLL	.	.	.	.	.	.	.	.	.	.	.	.
.	.	.	.	.	.	32A\	.	.	.	.	.	.	.	.	.	.	.	.
.	.	.	16B/JJ	.	16d/JJ	32B\	.	.	.	.	.	.	.	.	.	.	.	.
.	.	.	.	.	.	32c\JJJ	.	.	.	.	.	.	.	.	.	.	.	.
*	*	*	*Xtremolo	*	*Xtremolo	*	*	*	*	*	*	*	*	*	*	*	*	*
8G\	.	.	16B/LL	.	16d/LL	16d\LL	.	.	.	.	.	.	.	.	.	.	.	.
.	.	.	16B/	.	16d/	16B\	.	.	.	.	.	.	.	.	.	.	.	.
8G\J	6 4	.	16c/	.	16e/	16c\	-gnus	.	.	.	.	.	.	.	.	.	.	.
.	.	.	16c/JJ	.	16e/JJ	16e\JJ	.	.	.	.	.	.	.	.	.	.	.	.
=20	=20	=20	=20	=20	=20	=20	=20	=20	=20	=20	=20	=20	=20	=20	=20	=20	=20	=20
*	*	*	*tremolo	*	*tremolo	*	*	*	*	*	*	*	*	*	*	*	*	*
8G\L	5 3	.	16B/LL	.	16d/LL	16.d\LL	de-	.	.	.	.	.	.	.	.	.	.	.
.	.	.	16B/	.	16d/	.	.	.	.	.	.	.	.	.	.	.	.	.
.	.	.	.	.	.	32B\JJk	.	.	.	.	.	.	.	.	.	.	.	.
8G\	.	.	16B/	.	16d/	4G\	-i	.	.	.	.	.	.	.	.	.	.	.
.	.	.	16B/JJ	.	16d/JJ	.	.	.	.	.	.	.	.	.	.	.	.	.
*	*	*	*Xtremolo	*	*Xtremolo	*	*	*	*	*	*	*	*	*	*	*	*	*
8G\	.	.	16B/LL	.	16d/LL	.	.	.	.	.	.	.	.	.	.	.	.	.
.	.	.	16B/	.	16d/	.	.	.	.	.	.	.	.	.	.	.	.	.
8G\J	6 4	.	16c/	.	16e/	16.c\LL	qui	.	.	.	.	.	.	.	.	.	.	.
.	.	.	16c/JJ	.	16e/JJ	.	.	.	.	.	.	.	.	.	.	.	.	.
.	.	.	.	.	.	32e\JJk	.	.	.	.	.	.	.	.	.	.	.	.
*Xtremolo	*	*	*	*	*	*	*	*	*	*	*	*	*	*	*	*	*	*
!	!	!	!	!	!LO:LB:g=original	!	!	!	!	!	!	!	!	!	!	!	!	!
=21	=21	=21	=21	=21	=21	=21	=21	=21	=21	=21	=21	=21	=21	=21	=21	=21	=21	=21
*	*	*	*tremolo	*	*tremolo	*	*	*	*	*	*	*	*	*	*	*	*	*
!	!	!	!	!	!	!LO:SIC:v:l:s=tol-	!	!	!	!	!	!	!	!	!	!	!	!
8G\L	5 3	.	16B/LL	.	16d/LL	16.d\LL	lol-	.	.	.	.	.	.	.	1r	1r	.	.
.	.	.	16B/	.	16d/	.	.	.	.	.	.	.	.	.	.	.	.	.
.	.	.	.	.	.	32B\JJk	.	.	.	.	.	.	.	.	.	.	.	.
8G\	.	.	16B/	.	16d/	4G\	-lis	.	.	.	.	.	.	.	.	.	.	.
.	.	.	16B/JJ	.	16d/JJ	.	.	.	.	.	.	.	.	.	.	.	.	.
*	*	*	*Xtremolo	*	*Xtremolo	*	*	*	*	*	*	*	*	*	*	*	*	*
8G\	.	.	16B/LL	.	16d/LL	.	.	.	.	.	.	.	.	.	.	.	.	.
.	.	.	16B/	.	16d/	.	.	.	.	.	.	.	.	.	.	.	.	.
8B\J	5 3	.	16d/	.	16g/	16B\LL	pec-	.	.	.	.	.	.	.	.	.	.	.
.	.	.	16d/JJ	.	16g/JJ	16d\JJ	.	.	.	.	.	.	.	.	.	.	.	.
=22	=22	=22	=22	=22	=22	=22	=22	=22	=22	=22	=22	=22	=22	=22	=22	=22	=22	=22
4c\	6 3	.	4e/	.	4a/	32c\LLL	-ca-	.	.	.	.	.	.	.	.	.	.	.
.	.	.	.	.	.	32d\	.	.	.	.	.	.	.	.	.	.	.	.
.	.	.	.	.	.	32e\	.	.	.	.	.	.	.	.	.	.	.	.
.	.	.	.	.	.	32d\JJJ	.	.	.	.	.	.	.	.	.	.	.	.
.	.	.	.	.	.	32c\LLL	.	.	.	.	.	.	.	.	.	.	.	.
.	.	.	.	.	.	32d\	.	.	.	.	.	.	.	.	.	.	.	.
.	.	.	.	.	.	32c\	.	.	.	.	.	.	.	.	.	.	.	.
.	.	.	.	.	.	32B\JJJ	.	.	.	.	.	.	.	.	.	.	.	.
!	!	!	!	!	!	!LO:LB:g=original	!	!	!	!	!	!	!	!	!	!	!	!
8r	.	.	8r	.	8r	32A\LLL	.	.	.	.	.	.	.	.	.	.	.	.
.	.	.	.	.	.	32B\	.	.	.	.	.	.	.	.	.	.	.	.
.	.	.	.	.	.	32c\	.	.	.	.	.	.	.	.	.	.	.	.
.	.	.	.	.	.	32B\JJJ	.	.	.	.	.	.	.	.	.	.	.	.
8c#X\	.	.	8e/	.	8g/	32A\LLL	.	.	.	.	.	.	.	.	.	.	.	.
.	.	.	.	.	.	32B\	.	.	.	.	.	.	.	.	.	.	.	.
.	.	.	.	.	.	32A\	-ta	.	.	.	.	.	.	.	.	.	.	.
.	.	.	.	.	.	32G\JJJ	.	.	.	.	.	.	.	.	.	.	.	.
=23	=23	=23	=23	=23	=23	=23	=23	=23	=23	=23	=23	=23	=23	=23	=23	=23	=23	=23
!LO:TX:t=P:problem=mixed beam	!	!	!	!	!	!LO:TX:t=P:problem=mixed beam	!	!	!	!	!	!	!	!	!	!	!	!
8d\L	#	.	8c/L	.	8dd\L	8d\L	mun-	2r	.	2r	.	2r	.	.	2r	2r	2r	2r
8D/	.	.	8f#X 8A/	.	8ddd\	8D/J	-di	.	.	.	.	.	.	.	.	.	.	.
8D/J	.	.	8f#J 8A/	.	8ddd\J	4r	.	.	.	.	.	.	.	.	.	.	.	.
8r	.	.	8r	.	8r	.	.	.	.	.	.	.	.	.	.	.	.	.
!LO:LB:g=original	!	!	!LO:LB:g=original	!	!	!	!	!	!	!	!	!LO:LB:g=original	!	!	!	!	!	!
=24	=24	=24	=24	=24	=24	=24	=24	=24	=24	=24	=24	=24	=24	=24	=24	=24	=24	=24
8.d\L	#	.	8.cc\L	.	8.ff#X\L	8.d\L	Mi-	8.c\L	Mi-	8.a\L	Mi-	8.ff#X\L	Mi-	.	8.dd\L	8.dd\L	8.dd\L	8.ff#X\L
16d\Jk	.	.	16cc\Jk	.	16ff#\Jk	16d\Jk	-se-	16c\Jk	-se-	16a\Jk	-se-	16ff#\Jk	-se-	.	16dd\Jk	16dd\Jk	16dd\Jk	16ff#\Jk
8.c\L	# 2	.	8a/L	.	8.ff#\L	8.c\L	-re-	8.c\L	-re-	8.a\L	-re-	8.ff#\L	-re-	.	8.dd\L	8.dd\L	8.cc\L	8.ff#\L
.	.	.	8a/J	.	.	.	.	.	.	.	.	.	.	.	.	.	.	.
16c\Jk	.	.	.	.	16ff#\Jk	16c\Jk	-re	16c\Jk	-re	16a\Jk	-re	16ff#\Jk	-re	.	16dd\Jk	16dd\Jk	16cc\Jk	16ff#\Jk
!	!	!	!	!	!	!	!	!LO:LB:g=original	!	!LO:LB:g=original	!	!	!	!	!	!	!	!
=25	=25	=25	=25	=25	=25	=25	=25	=25	=25	=25	=25	=25	=25	=25	=25	=25	=25	=25
8B\L	6 3	.	8b/L	.	8gg\L	8B\	no-	8d\	no-	8b\	no-	16.gg\LL	no-	.	4dd\	4dd\	8b\L	8gg\L
.	.	.	.	.	.	.	.	.	.	.	.	32dd\JJk	.	.	.	.	.	.
8G\J	.	.	8b/	.	8dd\	8B\	-bis	8d\	-bis	8b\	-bis	8dd\	-bis	.	.	.	8dd\	8bb\
4r	.	.	8a/	.	8cc\	4r	.	4r	.	4r	.	4r	.	.	4r	4r	8cc\	8aa\
.	.	.	8g/J	.	8b\J	.	.	.	.	.	.	.	.	.	.	.	8b\J	8gg\J
=26	=26	=26	=26	=26	=26	=26	=26	=26	=26	=26	=26	=26	=26	=26	=26	=26	=26	=26
*	*	*	*	*	*	*	*ij	*	*	*	*	*	*	*	*	*	*	*
!	!	!	!	!	!	!	!	!	!	!	!	!LO:TX:t=P:problem=brak taktów nr 26-27	!	!	!	!	!	!LO:SIC:v:s=8.ff#\L
8.d\L	#	.	8.cc\L	.	8.ff#X\L	8.d\L	Mi-	8.c\L	Mi-	8.a\L	mi-	2ryy	.	.	8.dd\L	8.dd\L	8.dd\L	8.ff\L
!	!	!	!	!	!	!	!	!	!	!	!	!	!	!	!	!	!	!LO:SIC:v:s=16ff#\Jk
16d\Jk	.	.	16cc\Jk	.	16ff#\Jk	16d\Jk	-se-	16c\Jk	-se-	16a\Jk	-se-	.	.	.	16dd\Jk	16dd\Jk	16dd\Jk	16ff\Jk
!	!	!	!	!	!	!	!	!	!	!	!	!	!	!	!	!	!	!LO:SIC:v:s=8.ff#\L
8.c\L	# 2	.	8a/L	.	8.ff#\L	8.c\L	-re-	8.c\L	-re-	8.a\L	-re-	.	.	.	8.dd\L	8.dd\L	8.cc\L	8.ff\L
.	.	.	8a/J	.	.	.	.	.	.	.	.	.	.	.	.	.	.	.
!	!	!	!	!	!	!	!	!	!	!	!	!	!	!	!	!	!	!LO:SIC:v:s=16ff#\Jk
16c\Jk	.	.	.	.	16ff#\Jk	16c\Jk	-re	16c\Jk	-re	16a\Jk	-re	.	.	.	16dd\Jk	16dd\Jk	16cc\Jk	16ff\Jk
!	!	!	!	!	!	!LO:LB:g=original	!	!	!	!	!	!	!	!	!	!	!	!
=27	=27	=27	=27	=27	=27	=27	=27	=27	=27	=27	=27	=27	=27	=27	=27	=27	=27	=27
8B\L	6 3	.	8b/L	.	8gg\L	8B\	no-	8d\	no-	8b\	no-	2ryy	.	.	4dd\	4dd\	8b\L	8gg\L
8G\J	.	.	8b/	.	8dd\	8B\	bis	8d\	-bis	8b\	-bis	.	.	.	.	.	8dd\	8bb\
*	*	*	*	*	*	*	*Xij	*	*	*	*	*	*	*	*	*	*	*
4r	.	.	8a/	.	8cc\	4r	.	4r	.	4r	.	.	.	.	4r	4r	8cc\	8aa\
.	.	.	8g/J	.	8b\J	.	.	.	.	.	.	.	.	.	.	.	8b\J	8gg\J
=28	=28	=28	=28	=28	=28	=28	=28	=28	=28	=28	=28	=28	=28	=28	=28	=28	=28	=28
*	*	*	*	*	*	*	*	*	*ij	*	*	*	*	*	*	*	*	*
8.G\L	8_ 3_	.	8.dd\L	.	8.bb\L	8.G\	Mi-	8.B\L	Mi-	8.g\	mi-	8.gg\	Mi-	.	2g/	2g/	4b/	4ffn\
16G\K	.	.	16dd\Jk	.	16bb\Jk	16G\	-se-	16B\Jk	-se-	16g\	-se-	16gg\	-se-	.	.	.	.	.
8.Fn\	.	.	8dd\L	.	8.bb\L	8.A\	-re-	8c\L	-re-	8.b\	-re-	8.ff\	-re-	.	.	.	4g/	4dd\
.	.	.	16dd\L	.	.	.	.	8d\J	-re	.	.	.	.	.	.	.	.	.
16F\Jk	.	.	16dd\JJ	.	16bb\Jk	16A\	-re	.	.	16b\	-re	16ff\	-re	.	.	.	.	.
!	!	!	!	!	!LO:LB:g=original	!	!	!	!	!	!	!	!	!	!	!	!	!
=29	=29	=29	=29	=29	=29	=29	=29	=29	=29	=29	=29	=29	=29	=29	=29	=29	=29	=29
8E\L	3 6	.	8ee\L	.	8ccc\L	8c\	no-	8c\	no-	8cc\	no-	8ee\	no-	.	4e/	4cc\	8cc\L	8ee\L
8E\J	.	.	8ee\	.	8gg\	8C/	-bis	8c\	-bis	8cc\	-bis	8ee\	-bis	.	.	.	8ee\	8gg\
4r	.	.	8dd\	.	8ffn\	4r	.	4r	.	4r	.	4r	.	.	4r	4r	8dd\	8ff\
.	.	.	8cc\J	.	8ee\J	.	.	.	.	.	.	.	.	.	.	.	8cc\J	8ee\J
!	!	!	!	!	!	!	!	!	!	!	!	!	!	!	!	!	!	!LO:LB:g=original
=30	=30	=30	=30	=30	=30	=30	=30	=30	=30	=30	=30	=30	=30	=30	=30	=30	=30	=30
!	!	!	!	!	!	!	!	!	!	!	!	!	!	!	!	!	!LO:TX:t=P:problem=mixed beam	!
8.F\L	6 3	.	8f/L	.	8aa\L	8.F\	Mi-	8.d\	Mi-	8.a\	mi-	8.ff\	Mi-	.	2r	2r	8ff\L	8aa\L
.	.	.	8a/	.	8ff\	.	.	.	.	.	.	.	.	.	.	.	8a/	8ff\
16F\K	.	.	.	.	.	16F\	-se-	16d\	-se-	16a\	-se-	16f/	-se-	.	.	.	.	.
8.F\	5 3	.	8f/	.	8dd\	8.F\	-re-	8.A\	-re-	8a\	-re-	8dd\	-re-	.	.	.	8g/	8dd\
!	!	!	!LO:SIC:v:s=8f#/J	!	!	!	!	!	!	!	!	!	!	!	!	!	!	!
.	.	.	8e#X/J	.	8cc\J	.	.	.	.	8e\	-re	8dd\	-re	.	.	.	8f/J	8cc\J
16F#X\Jk	.	.	.	.	.	16F#X\	-re	16A\	-re	.	.	.	.	.	.	.	.	.
!	!	!	!	!	!	!	!	!LO:LB:g=original	!	!LO:LB:g=original	!	!LO:LB:g=original	!	!	!	!	!	!
=31	=31	=31	=31	=31	=31	=31	=31	=31	=31	=31	=31	=31	=31	=31	=31	=31	=31	=31
!LO:TX:t=P:problem=mixed beam	!	!	!	!	!	!LO:TX:t=P:problem=mixed beam	!	!	!	!	!	!	!	!	!	!	!	!
8G\L	4 6	.	8g/L	.	8b/L	8G\L	no-	8G/	no-	8e\	no-	8cc\	no-	.	8g/L	8g/L	8d/L	8b\L
8GG/J	3 5	.	8b 8d 8G/	.	8gg 8b 8d/	8GG/J	-bis	8G/	-bis	8d\	-bis	8b\	-bis	.	8g/	8g/	8b/	8gg\
*	*	*	*	*	*	*	*	*	*Xij	*	*	*	*	*	*	*	*	*
4r	.	.	8bJ 8d 8G/	.	8ggJ 8b 8d/	4r	.	4r	.	4r	.	4r	.	.	8g/J	8g/J	8b/J	8gg\J
.	.	.	8r	.	8r	.	.	.	.	.	.	.	.	.	8r	8r	8r	8r
!LO:LB:g=original	!	!	!	!	!	!	!	!	!	!	!	!	!	!	!	!	!	!
=32	=32	=32	=32	=32	=32	=32	=32	=32	=32	=32	=32	=32	=32	=32	=32	=32	=32	=32
*tremolo	*	*	*	*	*	*	*	*	*	*	*	*	*	*	*	*	*	*
8c\L	5_ 3_	.	4e 4G/	.	4cc 4e 4G/	0r	.	0r	.	0r	.	0r	.	.	0r	0r	16cc\LL	16ee\LL
.	.	.	.	.	.	.	.	.	.	.	.	.	.	.	.	.	16b\	16dd\
8c\	.	.	.	.	.	.	.	.	.	.	.	.	.	.	.	.	16cc\	16ee\
.	.	.	.	.	.	.	.	.	.	.	.	.	.	.	.	.	16dd\JJ	16ff\JJ
!	!	!	!	!	!	!	!	!	!	!	!	!	!	!	!	!	!LO:LB:g=original	!
8c\	.	.	4r	.	4r	.	.	.	.	.	.	.	.	.	.	.	8ee\L	8gg\L
8c\J	.	.	.	.	.	.	.	.	.	.	.	.	.	.	.	.	8ee\J	8gg\J
!	!	!	!LO:LB:g=original	!	!	!	!	!	!	!	!	!	!	!	!	!	!	!
=33	=33	=33	=33	=33	=33	=33	=33	=33	=33	=33	=33	=33	=33	=33	=33	=33	=33	=33
!	!	!	!	!	!LO:TX:t=P:problem=mixed beam	!	!	!	!	!	!	!	!	!	!	!	!	!
8c\L	.	.	16eLL 16G/	.	16c/LL	.	.	.	.	.	.	.	.	.	.	.	4ee\	4gg\
.	.	.	16e/	.	16cc\	.	.	.	.	.	.	.	.	.	.	.	.	.
8c\	.	.	16d/	.	16b\	.	.	.	.	.	.	.	.	.	.	.	.	.
.	.	.	16e/JJ	.	16cc\JJ	.	.	.	.	.	.	.	.	.	.	.	.	.
8c\	.	.	16f/LL	.	16dd\LL	.	.	.	.	.	.	.	.	.	.	.	4r	4r
.	.	.	16e/	.	16cc\	.	.	.	.	.	.	.	.	.	.	.	.	.
8c\J	.	.	16d/	.	16b\	.	.	.	.	.	.	.	.	.	.	.	.	.
.	.	.	16e/JJ	.	16cc\JJ	.	.	.	.	.	.	.	.	.	.	.	.	.
=34	=34	=34	=34	=34	=34	=34	=34	=34	=34	=34	=34	=34	=34	=34	=34	=34	=34	=34
8c\L	6_ 4_	.	4f 4A/	.	4a/	.	.	.	.	.	.	.	.	.	.	.	16dd\LL	16ff\LL
.	.	.	.	.	.	.	.	.	.	.	.	.	.	.	.	.	16cc\	16ee\
8c\	.	.	.	.	.	.	.	.	.	.	.	.	.	.	.	.	16dd\	16ff\
.	.	.	.	.	.	.	.	.	.	.	.	.	.	.	.	.	16ee\JJ	16gg\JJ
8c\	.	.	4r	.	4r	.	.	.	.	.	.	.	.	.	.	.	8ff\L	8aa\L
8c\J	.	.	.	.	.	.	.	.	.	.	.	.	.	.	.	.	8ff\J	8aa\J
=35	=35	=35	=35	=35	=35	=35	=35	=35	=35	=35	=35	=35	=35	=35	=35	=35	=35	=35
!	!	!	!	!	!LO:TX:t=P:problem=mixed beam	!	!	!	!	!	!	!	!	!	!	!	!	!
8c\L	.	.	16c/LL	.	16c/LL	.	.	.	.	.	.	.	.	.	.	.	4ff\	4aa\
.	.	.	16f/	.	16cc\	.	.	.	.	.	.	.	.	.	.	.	.	.
8c\	.	.	16a/	.	16b\	.	.	.	.	.	.	.	.	.	.	.	.	.
.	.	.	16f/JJ	.	16cc\JJ	.	.	.	.	.	.	.	.	.	.	.	.	.
*	*	*	*rep	*	*	*	*	*	*	*	*	*	*	*	*	*	*	*
8c\	.	.	16c/LL	.	16dd\LL	.	.	.	.	.	.	.	.	.	.	.	4r	4r
.	.	.	16f/	.	16cc\	.	.	.	.	.	.	.	.	.	.	.	.	.
8c\J	.	.	16a/	.	16b\	.	.	.	.	.	.	.	.	.	.	.	.	.
.	.	.	16f/JJ	.	16cc\JJ	.	.	.	.	.	.	.	.	.	.	.	.	.
*	*	*	*Xrep	*	*	*	*	*	*	*	*	*	*	*	*	*	*	*
=36	=36	=36	=36	=36	=36	=36	=36	=36	=36	=36	=36	=36	=36	=36	=36	=36	=36	=36
8G\L	7 5	.	4f 4G/	.	4b\	1r	.	1r	.	1r	.	1r	.	.	1r	1r	16b\LL	16dd\LL
.	.	.	.	.	.	.	.	.	.	.	.	.	.	.	.	.	16a\	16cc\
8G\	.	.	.	.	.	.	.	.	.	.	.	.	.	.	.	.	16b\	16dd\
.	.	.	.	.	.	.	.	.	.	.	.	.	.	.	.	.	16cc\JJ	16ee\JJ
8G\	.	.	4r	.	4r	.	.	.	.	.	.	.	.	.	.	.	8dd\L	8ff\L
8G\J	.	.	.	.	.	.	.	.	.	.	.	.	.	.	.	.	8dd\J	8ff\J
*Xtremolo	*	*	*	*	*	*	*	*	*	*	*	*	*	*	*	*	*	*
!	!	!	!	!	!LO:LB:g=original	!	!	!	!	!	!	!	!	!	!	!	!	!
=37	=37	=37	=37	=37	=37	=37	=37	=37	=37	=37	=37	=37	=37	=37	=37	=37	=37	=37
4G\	.	.	8fL 8G/	.	16gg\LL	.	.	.	.	.	.	.	.	.	.	.	4dd\	4ff\
.	.	.	.	.	16bb\	.	.	.	.	.	.	.	.	.	.	.	.	.
.	.	.	16b/L	.	16ddd\	.	.	.	.	.	.	.	.	.	.	.	.	.
.	.	.	16a/JJ	.	16ccc\JJ	.	.	.	.	.	.	.	.	.	.	.	.	.
4r	.	.	16g/LL	.	16bb\LL	.	.	.	.	.	.	.	.	.	.	.	4r	4r
.	.	.	16f/	.	16aa\	.	.	.	.	.	.	.	.	.	.	.	.	.
.	.	.	16e/	.	16gg\	.	.	.	.	.	.	.	.	.	.	.	.	.
.	.	.	16d/JJ	.	16ff\JJ	.	.	.	.	.	.	.	.	.	.	.	.	.
!	!	!	!	!	!	!LO:LB:g=original	!	!	!	!	!	!	!	!	!	!	!	!
=38	=38	=38	=38	=38	=38	=38	=38	=38	=38	=38	=38	=38	=38	=38	=38	=38	=38	=38
*tremolo	*	*	*	*	*	*	*	*	*	*	*	*	*	*	*	*	*	*
8c\L	5_ 3_	f	4cc 4e 4G/	.	4ee\	2c\	A-	2e\	A-	2ee\	A-	2gg\	A-	.	4e/	4cc\	16cc\LL	16ee\LL
.	.	.	.	.	.	.	.	.	.	.	.	.	.	.	.	.	16b\	16dd\
8c\	.	.	.	.	.	.	.	.	.	.	.	.	.	.	.	.	16cc\	16ee\
.	.	.	.	.	.	.	.	.	.	.	.	.	.	.	.	.	16dd\JJ	16ff\JJ
8c\	.	.	4r	.	4r	.	.	.	.	.	.	.	.	.	8e/L	8cc\L	8ee\L	8gg\L
8c\J	.	.	.	.	.	.	.	.	.	.	.	.	.	.	8e/J	8cc\J	8ee\J	8gg\J
!	!	!	!	!	!	!	!	!	!	!	!	!	!	!	!LO:LB:g=original	!	!	!LO:LB:g=original
=39	=39	=39	=39	=39	=39	=39	=39	=39	=39	=39	=39	=39	=39	=39	=39	=39	=39	=39
8c\L	.	.	16e/LL	.	16cc\LL	4c\	-gnus	4e\	-gnus	4ee\	-gnus	4gg\	-gnus	.	4e/	4cc\	4ee\	4gg\
.	.	.	16c/	.	16ee\	.	.	.	.	.	.	.	.	.	.	.	.	.
8c\	.	.	16g/	.	16gg\	.	.	.	.	.	.	.	.	.	.	.	.	.
.	.	.	16e/JJ	.	16ccc\JJ	.	.	.	.	.	.	.	.	.	.	.	.	.
8c\	.	.	16c/LL	.	16bb\LL	4r	.	4r	.	4r	.	4r	.	.	4r	4r	4r	4r
.	.	.	16e/	.	16ccc\	.	.	.	.	.	.	.	.	.	.	.	.	.
8c\J	.	.	16g/	.	16bb\	.	.	.	.	.	.	.	.	.	.	.	.	.
.	.	.	16e/JJ	.	16ccc\JJ	.	.	.	.	.	.	.	.	.	.	.	.	.
!	!	!	!	!	!	!	!	!	!	!	!	!	!	!	!	!LO:LB:g=original	!	!
=40	=40	=40	=40	=40	=40	=40	=40	=40	=40	=40	=40	=40	=40	=40	=40	=40	=40	=40
*	*	*	*	*	*	*	*ij	*	*ij	*	*ij	*	*ij	*	*	*	*	*
8c\L	6_ 4_	.	4f 4c/	.	4aa\	2c\	A-	2f\	A-	2ff\	A-	2aa\	A-	.	4c/	4cc\	16dd\LL	16ff\LL
.	.	.	.	.	.	.	.	.	.	.	.	.	.	.	.	.	16cc\	16ee\
8c\	.	.	.	.	.	.	.	.	.	.	.	.	.	.	.	.	16dd\	16ff\
.	.	.	.	.	.	.	.	.	.	.	.	.	.	.	.	.	16ee\JJ	16gg\JJ
8c\	.	.	4r	.	4r	.	.	.	.	.	.	.	.	.	8c/L	8cc\L	8ff\L	8aa\L
8c\J	.	.	.	.	.	.	.	.	.	.	.	.	.	.	8c/J	8cc\J	8ff\J	8aa\J
!	!	!	!LO:LB:g=original	!	!	!	!	!	!	!	!	!	!	!	!	!	!LO:LB:g=original	!
=41	=41	=41	=41	=41	=41	=41	=41	=41	=41	=41	=41	=41	=41	=41	=41	=41	=41	=41
8c\L	.	.	16f/LL	.	16cc\LL	4c\	-gnus	4f\	-gnus	4ff\	-gnus	4aa\	-gnus	.	4c/	4cc\	4ff\	4aa\
*	*	*	*	*	*	*	*Xij	*	*Xij	*	*Xij	*	*Xij	*	*	*	*	*
.	.	.	16c/	.	16ff\	.	.	.	.	.	.	.	.	.	.	.	.	.
8c\	.	.	16a/	.	16aa\	.	.	.	.	.	.	.	.	.	.	.	.	.
.	.	.	16f/JJ	.	16ccc\JJ	.	.	.	.	.	.	.	.	.	.	.	.	.
8c\	.	.	16c/LL	.	16bb\LL	4r	.	4r	.	4r	.	4r	.	.	4r	4r	4r	4r
.	.	.	16f/	.	16ccc\	.	.	.	.	.	.	.	.	.	.	.	.	.
8c\J	.	.	16a/	.	16bb\	.	.	.	.	.	.	.	.	.	.	.	.	.
.	.	.	16f/JJ	.	16ccc\JJ	.	.	.	.	.	.	.	.	.	.	.	.	.
=42	=42	=42	=42	=42	=42	=42	=42	=42	=42	=42	=42	=42	=42	=42	=42	=42	=42	=42
8G\L	7 5	.	4g 4G/	.	4bb\	8B\	A-	8d\	A-	8dd\	A-	8ff\	A-	.	4g/	4dd\	16b\LL	16dd\LL
.	.	.	.	.	.	.	.	.	.	.	.	.	.	.	.	.	16a\	16cc\
8G\	.	.	.	.	.	16B\	-gnus	16d\	-gnus	16dd\	-gnus	16ff\	-gnus	.	.	.	16b\	16dd\
.	.	.	.	.	.	16B\	De-	16d\	De-	16dd\	De-	16ff\	De-	.	.	.	16cc\JJ	16ee\JJ
8G\	.	.	4r	.	4r	8B\	-i	8d\	-i	8dd\	-i	8ff\	-i	.	8g/L	8dd\L	8dd\L	8ff\L
8G\J	.	.	.	.	.	8B\	qui	8d\	qui	8dd\	qui	8ff\	qui	.	8g/J	8dd\J	8dd\J	8ff\J
*Xtremolo	*	*	*	*	*	*	*	*	*	*	*	*	*	*	*	*	*	*
=43	=43	=43	=43	=43	=43	=43	=43	=43	=43	=43	=43	=43	=43	=43	=43	=43	=43	=43
!	!	!	!	!	!	!LO:SIC:v:l:s=tol-	!	!	!	!	!	!	!	!	!	!	!	!
4G\	.	.	16d/LL	.	16gg\LL	8B\	lol-	8d\	tol-	8dd\	tol-	8ff\	tol-	.	4g/	4dd\	4dd\	4ff\
.	.	.	16g/	.	16bb\	.	.	.	.	.	.	.	.	.	.	.	.	.
.	.	.	16b/	.	16ddd\	16B\	-lis	16d\	-lis	16dd\	-lis	16ff\	-lis	.	.	.	.	.
.	.	.	16a/JJ	.	16ccc\JJ	16B\	pec-	16d\	pec-	16dd\	pec-	16ff\	pec-	.	.	.	.	.
!	!	!	!	!	!	!	!	!LO:LB:g=original	!	!	!	!LO:LB:g=original	!	!	!	!	!	!
4r	.	.	16g/LL	.	16bb\LL	16B\LL	-ca-	8e\	-ca-	8ee\	-ca-	8gg\	-ca-	.	4r	4r	4r	4r
.	.	.	16f/	.	16aa\	16G\JJ	.	.	.	.	.	.	.	.	.	.	.	.
.	.	.	16e/	.	16gg\	16A\LL	-ta	8d\	-ta	8dd\	-ta	8ff\	-ta	.	.	.	.	.
.	.	.	16d/JJ	.	16ff\JJ	16B\JJ	.	.	.	.	.	.	.	.	.	.	.	.
!	!	!	!	!	!LO:LB:g=original	!LO:LB:g=original	!	!	!	!LO:LB:g=original	!	!	!	!	!	!	!	!
=44	=44	=44	=44	=44	=44	=44	=44	=44	=44	=44	=44	=44	=44	=44	=44	=44	=44	=44
4C/	.	.	16c/LL	.	16ee\LL	8c\	mun-	8c\	mun-	8cc\	mun-	8ee\	mun-	.	4e/	4cc\	4cc\	4ee\
.	.	.	16c/	.	16cc\	.	.	.	.	.	.	.	.	.	.	.	.	.
.	.	.	16B/	.	16dd\	8C/	-di	8c\	-di	8cc\	-di	8ee\	-di	.	.	.	.	.
.	.	.	16c/JJ	.	16ee\JJ	.	.	.	.	.	.	.	.	.	.	.	.	.
4r	.	.	16d/LL	.	16ff\LL	4r	.	4r	.	4r	.	4r	.	.	4r	4r	4r	4r
.	.	.	16e/	.	16gg\	.	.	.	.	.	.	.	.	.	.	.	.	.
.	.	.	16f/	.	16aa\	.	.	.	.	.	.	.	.	.	.	.	.	.
.	.	.	16d/JJ	.	16bb\JJ	.	.	.	.	.	.	.	.	.	.	.	.	.
=45	=45	=45	=45	=45	=45	=45	=45	=45	=45	=45	=45	=45	=45	=45	=45	=45	=45	=45
4C/	.	.	4e 4G/	.	4ccc\	2r	.	2r	.	2r	.	2r	.	.	8r	8r	8r	8r
.	.	.	.	.	.	.	.	.	.	.	.	.	.	.	8cc\L	8cc\L	8cc\L	8ee\L
4r	.	.	4r	.	4r	.	.	.	.	.	.	.	.	.	8g\	8g\	8cc\	8ee\
.	.	.	.	.	.	.	.	.	.	.	.	.	.	.	8e\J	8e\J	8cc\J	8ee\J
!LO:LB:g=original	!	!	!	!	!	!	!	!	!	!	!	!	!	!	!	!	!	!
=46	=46	=46	=46	=46	=46	=46	=46	=46	=46	=46	=46	=46	=46	=46	=46	=46	=46	=46
8.G\L	6 4	p	8.cc\L	.	8.ee\L	8.G\	Qui	8.c\	qui	8.cc\	Qui	8.ee\	Qui	.	2g/	2g/	4cc\	4ee\
16G\Jk	.	.	16cc\Jk	.	16ee\Jk	16G\	tol-	16c\	tol-	16cc\	tol-	16ee\	tol-	.	.	.	.	.
8.G\L	5 3	.	8.b\L	.	8.dd\L	8.G\	-lis	8.B\	-lis	8.b\	-lis	8dd\	-lis	.	.	.	4b\	4dd\
.	.	.	.	.	.	.	.	.	.	.	.	8dd\	pec-	.	.	.	.	.
16G\Jk	.	.	16b\Jk	.	16dd\Jk	16G\	pec-	16B\	pec-	16b\	pec-	.	.	.	.	.	.	.
=47	=47	=47	=47	=47	=47	=47	=47	=47	=47	=47	=47	=47	=47	=47	=47	=47	=47	=47
*	*	*	*	*	*	*	*	*	*	*	*	*	*	*	*2\right	*2\right	*	*
4c\	4 2	.	16r	.	16r	4c\	-ca-	4A\	-ca-	4a\	-ca-	4ff#X\	-ca-	.	2dd\	2dd\	4cc\	4ff#X\
.	.	.	16a/LL	.	16ff#X\LL	.	.	.	.	.	.	.	.	.	.	.	.	.
.	.	.	16a/	.	16ff#\	.	.	.	.	.	.	.	.	.	.	.	.	.
.	.	.	16a/JJ	.	16ff#\JJ	.	.	.	.	.	.	.	.	.	.	.	.	.
4B\	.	.	16r	.	16r	4B\	-ta	4B\	-ta	4b\	-ta	4gg\	-ta	.	.	.	8a/L	4gg\
.	.	.	16b\LL	.	16gg\LL	.	.	.	.	.	.	.	.	.	.	.	.	.
.	.	.	16b\	.	16gg\	.	.	.	.	.	.	.	.	.	.	.	8g/J	.
.	.	.	16b\JJ	.	16gg\JJ	.	.	.	.	.	.	.	.	.	.	.	.	.
!	!	!	!LO:LB:g=original	!	!	!	!	!	!	!	!	!	!	!	!	!	!	!
=48	=48	=48	=48	=48	=48	=48	=48	=48	=48	=48	=48	=48	=48	=48	=48	=48	=48	=48
4c\	6 3	.	16r	.	16r	4c\	mun-	4e\	mun-	4dd\	mun-	4aa\	mun-	.	4cc\	4ee\	4cc\	4aa\
.	.	.	16cc\LL	.	16aa\LL	.	.	.	.	.	.	.	.	.	.	.	.	.
.	.	.	16cc\	.	16aa\	.	.	.	.	.	.	.	.	.	.	.	.	.
.	.	.	16cc\JJ	.	16aa\JJ	.	.	.	.	.	.	.	.	.	.	.	.	.
4d\	#	.	16r	.	16r	4d\	.	4d\	.	4cc\	.	4ff#X\	.	.	4cc\	4cc\	4a/	4ff#X\
.	.	.	16a/LL	.	16ff#X\LL	.	.	.	.	.	.	.	.	.	.	.	.	.
.	.	.	16a/	.	16ff#\	.	.	.	.	.	.	.	.	.	.	.	.	.
.	.	.	16a/JJ	.	16ff#\JJ	.	.	.	.	.	.	.	.	.	.	.	.	.
=49	=49	=49	=49	=49	=49	=49	=49	=49	=49	=49	=49	=49	=49	=49	=49	=49	=49	=49
2G\	.	.	8g/L	.	8gg\L	2G\	-di	2d;\	-di	2b\	-di	2gg\	-di	.	4dd\	4dd\	8b\L	8gg\L
.	.	.	16b/L	.	16cc\L	.	.	.	.	.	.	.	.	.	.	.	16b\L	16dd\L
.	.	.	16cc/JJ	.	16ee\JJ	.	.	.	.	.	.	.	.	.	.	.	16cc\JJ	16ee\JJ
.	.	.	8b/L	.	8dd\L	.	.	.	.	.	.	.	.	.	4r	4r	8b\L	8dd\L
.	.	.	8b/J	.	8dd\J	.	.	.	.	.	.	.	.	.	.	.	8b\J	8dd\J
!	!	!	!	!	!LO:LB:g=original	!	!	!	!	!	!	!	!	!	!	!	!	!LO:LB:g=original
=50	=50	=50	=50	=50	=50	=50	=50	=50	=50	=50	=50	=50	=50	=50	=50	=50	=50	=50
!	!	!	!	!	!	!	!	!LO:TX:a:t=P:problem=brak taktów nr 50-51	!	!	!	!	!	!	!	!	!	!
2GG/	.	.	8b/L	.	8dd\L	1r	.	2ryy	.	1r	.	1r	.	.	4r	4r	8b/L	8dd\L
.	.	.	16g/L	.	16b\L	.	.	.	.	.	.	.	.	.	.	.	16g/L	16b\L
.	.	.	16a/JJ	.	16cc\JJ	.	.	.	.	.	.	.	.	.	.	.	16a/JJ	16cc\JJ
.	.	.	8g/L	.	8b\L	.	.	.	.	.	.	.	.	.	8G/L	8g/L	8g/L	8b\L
.	.	.	8g/J	.	8b\J	.	.	.	.	.	.	.	.	.	8G/J	8g/J	8g/J	8b\J
!	!	!	!	!	!	!	!	!	!	!	!	!	!	!	!LO:LB:g=original	!	!LO:LB:g=original	!
=51	=51	=51	=51	=51	=51	=51	=51	=51	=51	=51	=51	=51	=51	=51	=51	=51	=51	=51
*	*	*	*	*	*	*	*	*	*	*	*	*	*	*	*	*	*	*2\right
!LO:TX:b:i:t=Dona Ut Kirye	!	!	!LO:TX:b:i:t=Dona nobis Ut Kyrie	!	!LO:TX:b:i:t=Dona nobis ut Kyrie	!LO:TX:b:i:t=Dona nobis ut Kyrie	!	!LO:TX:b:i:t=Dona Nobis ut Kyrie	!	!	!	!LO:TX:b:i:t=Dona Ut Kyrie	!	!	!LO:TX:b:i:t=Dona Nobis ut Kyrie	!LO:TX:b:i:t=Dona Nobis ut Kyrie	!LO:TX:b:i:t=Dona Nobis ut Kyrie	!LO:TX:b:i:t=Dona Nobis ut Kyrie
2GG/	.	.	2g/	.	2g/	.	.	2ryy	.	.	.	.	.	.	2G/	2g/	2g/	2b\
==	==	==	==	==	==	==	==	==	==	==	==	==	==	==	==	==	==	==
*-	*-	*-	*-	*-	*-	*-	*-	*-	*-	*-	*-	*-	*-	*-	*-	*-	*-	*-
!!!system-decoration: [(g1)][(g2)][(g3)][(g4)]<s11>
!!!RDF**dynam: f = "f."
!!!RDF**dynam: p = "p."
!!!ENC: Anastazja Marusiak
!!!END: 2021-11-16
!!!ENC: Andrzej Kubiczek
!!!END: 2021-12-02
